www/assets/icons/local_police.svg

<svg xmlns="http://www.w3.org/2000/svg" width="24" height="24" viewBox="0 0 24 24" fill='currentColor'><path d="M12 1 3 5v6c0 5.55 3.84 10.74 9 12 5.16-1.26 9-6.45 9-12V5zm2.5 11.59.9 3.88-3.4-2.05-3.4 2.05.9-3.87-3-2.59 3.96-.34L12 6.02l1.54 3.64 3.96.34z"/></svg>

<svg width="24" height="24" viewBox="0 0 24 24" xmlns="http://www.w3.org/2000/svg" fill='currentColor'><path d="M12 1L3 5V11C3 16.55 6.84 21.74 12 23C17.16 21.74 21 16.55 21 11V5L12 1ZM14.5 12.59L15.4 16.47L12 14.42L8.6 16.47L9.5 12.6L6.5 10.01L10.46 9.67L12 6.02L13.54 9.66L17.5 10L14.5 12.59Z"/></svg>
